Newaita-dark/.LP/16/weather-overcast.svg

<svg xmlns="http://www.w3.org/2000/svg" xmlns:xlink="http://www.w3.org/1999/xlink" width="16px" height="16px" viewBox="0 0 16 16" version="1.1">
<defs>
<linearGradient id="linear0" gradientUnits="userSpaceOnUse" x1="254" y1="233.5" x2="254" y2="254.666672" gradientTransform="matrix(0.031253,0,0,0.031253,-0.000000000000007106,6.554011)">
<stop offset="0" style="stop-color:rgb(0%,0%,0%);stop-opacity:0.27451;"/>
<stop offset="1" style="stop-color:rgb(0%,0%,0%);stop-opacity:0;"/>
</linearGradient>
<radialGradient id="radial0" gradientUnits="userSpaceOnUse" cx="450.908936" cy="189.579361" fx="450.908936" fy="189.579361" r="21.166656" gradientTransform="matrix(0.0000000870853,-0.0390662,-0.0703192,-0.0000000507694,24.576899,31.632286)">
<stop offset="0" style="stop-color:rgb(0%,0%,0%);stop-opacity:0.313725;"/>
<stop offset="0.222222" style="stop-color:rgb(0%,0%,0%);stop-opacity:0.27451;"/>
<stop offset="1" style="stop-color:rgb(0%,0%,0%);stop-opacity:0;"/>
</radialGradient>
<radialGradient id="radial1" gradientUnits="userSpaceOnUse" cx="450.908936" cy="189.579361" fx="450.908936" fy="189.579361" r="21.166656" gradientTransform="matrix(-0.0000000870853,0.0390662,0.0703192,0.0000000507694,-9.85805,-3.929121)">
<stop offset="0" style="stop-color:rgb(0%,0%,0%);stop-opacity:0.313725;"/>
<stop offset="0.222222" style="stop-color:rgb(0%,0%,0%);stop-opacity:0.27451;"/>
<stop offset="1" style="stop-color:rgb(0%,0%,0%);stop-opacity:0;"/>
</radialGradient>
<radialGradient id="radial2" gradientUnits="userSpaceOnUse" cx="450.908936" cy="189.579361" fx="450.908936" fy="189.579361" r="21.166656" gradientTransform="matrix(-0.0000000870853,-0.0390662,0.0703192,-0.0000000507694,-9.85805,31.632286)">
<stop offset="0" style="stop-color:rgb(0%,0%,0%);stop-opacity:0.313725;"/>
<stop offset="0.222222" style="stop-color:rgb(0%,0%,0%);stop-opacity:0.27451;"/>
<stop offset="1" style="stop-color:rgb(0%,0%,0%);stop-opacity:0;"/>
</radialGradient>
<radialGradient id="radial3" gradientUnits="userSpaceOnUse" cx="450.908936" cy="189.579361" fx="450.908936" fy="189.579361" r="21.166656" gradientTransform="matrix(0.0000000870853,0.0390662,-0.0703192,0.0000000507694,24.576899,-3.929121)">
<stop offset="0" style="stop-color:rgb(0%,0%,0%);stop-opacity:0.313725;"/>
<stop offset="0.222222" style="stop-color:rgb(0%,0%,0%);stop-opacity:0.27451;"/>
<stop offset="1" style="stop-color:rgb(0%,0%,0%);stop-opacity:0;"/>
</radialGradient>
<linearGradient id="linear1" gradientUnits="userSpaceOnUse" x1="211.666672" y1="-20.499998" x2="211.666672" y2="-168.666656" gradientTransform="matrix(0.031253,0,0,0.031253,-0.0781358,6.698332)">
<stop offset="0" style="stop-color:rgb(56.470588%,64.313725%,68.235294%);stop-opacity:1;"/>
<stop offset="1" style="stop-color:rgb(69.019608%,74.509804%,77.254902%);stop-opacity:1;"/>
</linearGradient>
<linearGradient id="linear2" gradientUnits="userSpaceOnUse" x1="960" y1="1695.118164" x2="960" y2="815.118103" gradientTransform="matrix(0.00826903,0,0,0.00826903,0,0)">
<stop offset="0" style="stop-color:rgb(56.470588%,64.313725%,68.235294%);stop-opacity:1;"/>
<stop offset="1" style="stop-color:rgb(69.019608%,74.509804%,77.254902%);stop-opacity:1;"/>
</linearGradient>
</defs>
<g id="surface1">
<path style=" stroke:none;fill-rule:nonzero;fill:url(#linear0);" d="M 3.308594 13.851562 L 11.410156 13.851562 L 11.410156 14.511719 L 3.308594 14.511719 Z M 3.308594 13.851562 "/>
<path style=" stroke:none;fill-rule:nonzero;fill:url(#radial0);" d="M 11.410156 13.851562 L 12.734375 13.851562 L 12.734375 13.191406 L 11.410156 13.191406 Z M 11.410156 13.851562 "/>
<path style=" stroke:none;fill-rule:nonzero;fill:url(#radial1);" d="M 3.308594 13.851562 L 1.984375 13.851562 L 1.984375 14.511719 L 3.308594 14.511719 Z M 3.308594 13.851562 "/>
<path style=" stroke:none;fill-rule:nonzero;fill:url(#radial2);" d="M 3.308594 13.851562 L 1.984375 13.851562 L 1.984375 13.191406 L 3.308594 13.191406 Z M 3.308594 13.851562 "/>
<path style=" stroke:none;fill-rule:nonzero;fill:url(#radial3);" d="M 11.410156 13.851562 L 12.734375 13.851562 L 12.734375 14.511719 L 11.410156 14.511719 Z M 11.410156 13.851562 "/>
<path style=" stroke:none;fill-rule:nonzero;fill:url(#linear1);" d="M 8.699219 1.425781 C 7.898438 1.425781 7.195312 1.828125 6.78125 2.441406 C 6.433594 2.21875 6.011719 2.089844 5.554688 2.089844 C 4.53125 2.089844 3.679688 2.742188 3.460938 3.621094 C 3.253906 3.488281 3.007812 3.410156 2.742188 3.410156 C 2.011719 3.410156 1.421875 4 1.421875 4.734375 C 1.421875 5.46875 2.011719 6.058594 2.742188 6.058594 L 8.699219 6.058594 C 9.980469 6.058594 11.011719 5.023438 11.011719 3.742188 C 11.011719 2.460938 9.980469 1.425781 8.699219 1.425781 Z M 3.914062 5.355469 C 3.925781 5.371094 3.9375 5.382812 3.949219 5.394531 L 3.890625 5.394531 C 3.898438 5.382812 3.90625 5.371094 3.914062 5.355469 Z M 3.914062 5.355469 "/>
<path style=" stroke:none;fill-rule:nonzero;fill:url(#linear2);" d="M 10.914062 6.742188 C 9.460938 6.742188 8.210938 7.585938 7.628906 8.8125 C 7.410156 8.753906 7.183594 8.726562 6.945312 8.726562 C 5.8125 8.726562 4.851562 9.429688 4.472656 10.425781 C 4.144531 10.1875 3.742188 10.046875 3.308594 10.046875 C 2.207031 10.046875 1.324219 10.933594 1.324219 12.03125 C 1.324219 13.132812 2.207031 14.015625 3.308594 14.015625 C 3.390625 14.015625 3.46875 14.011719 3.546875 14.003906 C 3.578125 14.011719 3.605469 14.015625 3.636719 14.015625 L 10.914062 14.015625 C 12.929688 14.015625 14.554688 12.394531 14.554688 10.378906 C 14.554688 8.363281 12.929688 6.742188 10.914062 6.742188 Z M 10.914062 6.742188 "/>
<path style=" stroke:none;fill-rule:nonzero;fill:rgb(100%,100%,100%);fill-opacity:0.392157;" d="M 10.914062 6.742188 C 9.460938 6.742188 8.210938 7.585938 7.628906 8.8125 C 7.410156 8.753906 7.183594 8.726562 6.945312 8.726562 C 5.8125 8.726562 4.851562 9.429688 4.472656 10.425781 C 4.144531 10.1875 3.742188 10.046875 3.308594 10.046875 C 2.207031 10.046875 1.324219 10.933594 1.324219 12.03125 C 1.324219 12.058594 1.324219 12.085938 1.324219 12.113281 C 1.367188 11.054688 2.234375 10.214844 3.308594 10.214844 C 3.742188 10.214844 4.144531 10.351562 4.472656 10.589844 C 4.851562 9.59375 5.8125 8.890625 6.945312 8.890625 C 7.183594 8.890625 7.410156 8.921875 7.628906 8.976562 C 8.210938 7.75 9.460938 6.90625 10.914062 6.90625 C 12.902344 6.90625 14.507812 8.484375 14.550781 10.460938 C 14.554688 10.433594 14.554688 10.40625 14.554688 10.378906 C 14.554688 8.363281 12.929688 6.742188 10.914062 6.742188 Z M 10.914062 6.742188 "/>
<path style=" stroke:none;fill-rule:nonzero;fill:rgb(0%,0%,0%);fill-opacity:0.235294;" d="M 14.550781 10.304688 C 14.511719 12.285156 12.90625 13.867188 10.914062 13.867188 L 3.636719 13.867188 C 3.605469 13.867188 3.578125 13.859375 3.546875 13.851562 C 3.46875 13.859375 3.390625 13.867188 3.308594 13.867188 C 2.234375 13.867188 1.363281 13.019531 1.324219 11.957031 C 1.324219 11.980469 1.324219 12.007812 1.324219 12.03125 C 1.324219 13.132812 2.207031 14.015625 3.308594 14.015625 C 3.390625 14.015625 3.46875 14.011719 3.546875 14.003906 C 3.578125 14.011719 3.605469 14.015625 3.636719 14.015625 L 10.914062 14.015625 C 12.929688 14.015625 14.554688 12.394531 14.554688 10.378906 C 14.554688 10.351562 14.554688 10.328125 14.550781 10.304688 Z M 14.550781 10.304688 "/>
<path style="fill:none;stroke-width:11.338583;stroke-linecap:round;stroke-linejoin:miter;stroke:rgb(12.941177%,12.941177%,12.941177%);stroke-opacity:1;stroke-miterlimit:4;" d="M 1319.871917 815.353947 C 1144.140939 815.353947 992.974506 917.391289 922.587636 1065.723352 C 896.13351 1058.637425 868.734594 1055.330659 839.918493 1055.330659 C 702.923913 1055.330659 586.714718 1140.361778 540.892393 1260.822529 C 501.211204 1232.006428 452.554508 1215.000204 400.118652 1215.000204 C 266.903233 1215.000204 160.14194 1322.233893 160.14194 1454.976916 C 160.14194 1588.192335 266.903233 1694.953629 400.118652 1694.953629 C 410.038949 1694.953629 419.486851 1694.481233 429.407148 1693.536443 C 432.713914 1694.481233 436.02068 1694.953629 439.799841 1694.953629 L 1319.871917 1694.953629 C 1563.62779 1694.953629 1760.144153 1498.909661 1760.144153 1255.153788 C 1760.144153 1011.397915 1563.62779 815.353947 1319.871917 815.353947 Z M 1319.871917 815.353947 " transform="matrix(0.00826903,0,0,0.00826903,0,0)"/>
<path style=" stroke:none;fill-rule:nonzero;fill:rgb(100%,100%,100%);fill-opacity:0.392157;" d="M 8.777344 1.425781 C 7.976562 1.425781 7.273438 1.828125 6.859375 2.441406 C 6.511719 2.21875 6.089844 2.089844 5.632812 2.089844 C 4.609375 2.089844 3.757812 2.742188 3.539062 3.621094 C 3.332031 3.488281 3.085938 3.410156 2.820312 3.410156 C 2.089844 3.410156 1.5 4 1.5 4.734375 C 1.5 4.761719 1.5 4.789062 1.5 4.816406 C 1.542969 4.125 2.117188 3.578125 2.820312 3.578125 C 3.085938 3.578125 3.332031 3.652344 3.539062 3.785156 C 3.757812 2.90625 4.609375 2.253906 5.632812 2.253906 C 6.089844 2.253906 6.511719 2.382812 6.859375 2.605469 C 7.273438 1.992188 7.976562 1.59375 8.777344 1.59375 C 10.03125 1.59375 11.046875 2.582031 11.089844 3.824219 C 11.089844 3.796875 11.089844 3.769531 11.089844 3.742188 C 11.089844 2.460938 10.058594 1.425781 8.777344 1.425781 Z M 3.992188 5.523438 C 3.984375 5.535156 3.976562 5.546875 3.96875 5.5625 L 4.027344 5.5625 C 4.015625 5.546875 4.003906 5.535156 3.992188 5.523438 Z M 3.992188 5.523438 "/>
<path style=" stroke:none;fill-rule:nonzero;fill:rgb(0%,0%,0%);fill-opacity:0.235294;" d="M 11.011719 3.671875 C 10.972656 4.917969 9.957031 5.914062 8.699219 5.914062 L 2.742188 5.914062 C 2.035156 5.914062 1.460938 5.363281 1.421875 4.664062 C 1.421875 4.6875 1.421875 4.710938 1.421875 4.734375 C 1.421875 5.46875 2.011719 6.058594 2.742188 6.058594 L 8.699219 6.058594 C 9.980469 6.058594 11.011719 5.023438 11.011719 3.742188 C 11.011719 3.71875 11.011719 3.695312 11.011719 3.671875 Z M 3.914062 5.210938 C 3.90625 5.226562 3.898438 5.238281 3.890625 5.25 L 3.949219 5.25 C 3.9375 5.238281 3.925781 5.226562 3.914062 5.210938 Z M 3.914062 5.210938 "/>
<path style="fill:none;stroke-width:3;stroke-linecap:square;stroke-linejoin:round;stroke:rgb(12.941177%,12.941177%,12.941177%);stroke-opacity:1;stroke-miterlimit:4;" d="M 278.348554 -169.379446 C 252.725989 -169.379446 230.228126 -156.505669 216.979385 -136.882533 C 205.855442 -144.006856 192.356724 -148.131464 177.733114 -148.131464 C 144.986225 -148.131464 117.738814 -127.258448 110.739479 -99.136119 C 104.115108 -103.385716 96.240856 -105.885478 87.741664 -105.885478 C 64.368884 -105.885478 45.495677 -87.012271 45.495677 -63.514504 C 45.495677 -40.016736 64.368884 -21.143529 87.741664 -21.143529 L 278.348554 -21.143529 C 319.344659 -21.143529 352.341524 -54.265383 352.341524 -95.261488 C 352.341524 -136.257593 319.344659 -169.379446 278.348554 -169.379446 Z M 125.238101 -43.641392 C 125.613066 -43.141439 125.98803 -42.766475 126.362994 -42.391511 L 124.488172 -42.391511 C 124.738149 -42.766475 124.988125 -43.141439 125.238101 -43.641392 Z M 125.238101 -43.641392 " transform="matrix(0.031253,0,0,0.031253,0,6.719392)"/>
</g>
</svg>

<svg xmlns="http://www.w3.org/2000/svg" width="16" height="16"><defs><linearGradient id="a" gradientUnits="userSpaceOnUse" x1="254" y1="233.5" x2="254" y2="254.667" gradientTransform="matrix(.03125 0 0 .03125 0 6.554)"><stop offset="0" stop-opacity=".275"/><stop offset="1" stop-opacity="0"/></linearGradient><radialGradient id="b" gradientUnits="userSpaceOnUse" cx="450.909" cy="189.579" fx="450.909" fy="189.579" r="21.167" gradientTransform="matrix(0 -.03907 -.07032 0 24.577 31.632)"><stop offset="0" stop-opacity=".314"/><stop offset=".222" stop-opacity=".275"/><stop offset="1" stop-opacity="0"/></radialGradient><radialGradient id="c" gradientUnits="userSpaceOnUse" cx="450.909" cy="189.579" fx="450.909" fy="189.579" r="21.167" gradientTransform="matrix(0 .03907 .07032 0 -9.858 -3.93)"><stop offset="0" stop-opacity=".314"/><stop offset=".222" stop-opacity=".275"/><stop offset="1" stop-opacity="0"/></radialGradient><radialGradient id="d" gradientUnits="userSpaceOnUse" cx="450.909" cy="189.579" fx="450.909" fy="189.579" r="21.167" gradientTransform="matrix(0 -.03907 .07032 0 -9.858 31.632)"><stop offset="0" stop-opacity=".314"/><stop offset=".222" stop-opacity=".275"/><stop offset="1" stop-opacity="0"/></radialGradient><radialGradient id="e" gradientUnits="userSpaceOnUse" cx="450.909" cy="189.579" fx="450.909" fy="189.579" r="21.167" gradientTransform="matrix(0 .03907 -.07032 0 24.577 -3.93)"><stop offset="0" stop-opacity=".314"/><stop offset=".222" stop-opacity=".275"/><stop offset="1" stop-opacity="0"/></radialGradient><linearGradient id="f" gradientUnits="userSpaceOnUse" x1="211.667" y1="-20.5" x2="211.667" y2="-168.667" gradientTransform="matrix(.03125 0 0 .03125 -.078 6.698)"><stop offset="0" stop-color="#90a4ae"/><stop offset="1" stop-color="#b0bec5"/></linearGradient><linearGradient id="g" gradientUnits="userSpaceOnUse" x1="960" y1="1695.118" x2="960" y2="815.118" gradientTransform="rotate(.878) scale(.00827)"><stop offset="0" stop-color="#90a4ae"/><stop offset="1" stop-color="#b0bec5"/></linearGradient></defs><path d="M3.309 13.852h8.101v.66H3.31zm0 0" fill="url(#a)"/><path d="M11.41 13.852h1.324v-.66H11.41zm0 0" fill="url(#b)"/><path d="M3.309 13.852H1.984v.66H3.31zm0 0" fill="url(#c)"/><path d="M3.309 13.852H1.984v-.66H3.31zm0 0" fill="url(#d)"/><path d="M11.41 13.852h1.324v.66H11.41zm0 0" fill="url(#e)"/><path d="M8.7 1.426c-.802 0-1.505.402-1.919 1.015a2.267 2.267 0 0 0-1.226-.351c-1.024 0-1.875.652-2.094 1.531a1.32 1.32 0 0 0-2.04 1.113c0 .735.59 1.325 1.321 1.325H8.7a2.31 2.31 0 0 0 2.313-2.317 2.31 2.31 0 0 0-2.313-2.316zm-4.786 3.93c.012.015.023.027.035.039h-.058a.343.343 0 0 0 .023-.04zm0 0" fill="url(#f)"/><path d="M10.914 6.742a3.627 3.627 0 0 0-3.285 2.07 2.623 2.623 0 0 0-.684-.085 2.638 2.638 0 0 0-2.472 1.699 1.98 1.98 0 0 0-3.148 1.605c0 1.102.882 1.985 1.984 1.985.082 0 .16-.004.238-.012a.355.355 0 0 0 .09.012h7.277a3.631 3.631 0 0 0 3.64-3.637 3.631 3.631 0 0 0-3.64-3.637zm0 0" fill="url(#g)"/><path d="M10.914 6.742a3.627 3.627 0 0 0-3.285 2.07 2.623 2.623 0 0 0-.684-.085 2.638 2.638 0 0 0-2.472 1.699 1.98 1.98 0 0 0-3.148 1.605v.082a1.978 1.978 0 0 1 1.984-1.898c.433 0 .836.137 1.164.375a2.638 2.638 0 0 1 2.472-1.7 2.8 2.8 0 0 1 .684.087 3.627 3.627 0 0 1 3.285-2.07 3.628 3.628 0 0 1 3.637 3.554c.004-.027.004-.055.004-.082a3.631 3.631 0 0 0-3.64-3.637zm0 0" fill="#fff" fill-opacity=".392"/><path d="M14.55 10.305a3.627 3.627 0 0 1-3.636 3.562H3.637c-.032 0-.059-.008-.09-.015-.078.007-.156.015-.238.015a1.983 1.983 0 0 1-1.985-1.91v.074c0 1.102.883 1.985 1.985 1.985.082 0 .16-.004.238-.012a.355.355 0 0 0 .09.012h7.277a3.631 3.631 0 0 0 3.64-3.637c0-.027 0-.05-.003-.074zm0 0" fill-opacity=".235"/><path d="M10.914 6.742a3.627 3.627 0 0 0-3.285 2.07 2.623 2.623 0 0 0-.684-.085 2.638 2.638 0 0 0-2.472 1.699 1.98 1.98 0 0 0-3.148 1.605c0 1.102.882 1.985 1.984 1.985.082 0 .16-.004.242-.012a.305.305 0 0 0 .086.012h7.277a3.631 3.631 0 0 0 3.64-3.637 3.631 3.631 0 0 0-3.64-3.637zm0 0" fill="none" stroke-width=".09377353" stroke-linecap="round" stroke="#212121"/><path d="M8.777 1.426c-.8 0-1.504.402-1.918 1.015a2.267 2.267 0 0 0-1.226-.351c-1.024 0-1.875.652-2.094 1.531A1.32 1.32 0 0 0 1.5 4.734l.001.082a1.322 1.322 0 0 1 1.32-1.238c.266 0 .512.074.72.207.218-.879 1.07-1.531 2.093-1.531.457 0 .879.129 1.226.351a2.303 2.303 0 0 1 1.918-1.011c1.254 0 2.27.988 2.313 2.23v-.082a2.31 2.31 0 0 0-2.313-2.316zM3.992 5.523a.343.343 0 0 0-.023.04h.058c-.011-.016-.023-.028-.035-.04zm0 0" fill="#fff" fill-opacity=".392"/><path d="M11.012 3.672a2.31 2.31 0 0 1-2.313 2.242H2.742a1.32 1.32 0 0 1-1.32-1.25v.07c0 .735.59 1.325 1.32 1.325H8.7a2.31 2.31 0 0 0 2.313-2.317v-.07zM3.914 5.21a.343.343 0 0 1-.023.039h.058c-.011-.012-.023-.023-.035-.04zm0 0" fill-opacity=".235"/><path d="M8.7 1.426c-.802 0-1.505.402-1.919 1.015a2.267 2.267 0 0 0-1.226-.351c-1.024 0-1.875.652-2.094 1.531a1.32 1.32 0 0 0-2.04 1.113c0 .735.59 1.325 1.321 1.325H8.7a2.31 2.31 0 0 0 2.313-2.317 2.31 2.31 0 0 0-2.313-2.316zm-4.786 3.93a.352.352 0 0 0 .035.039h-.058a.344.344 0 0 0 .023-.04zm0 0" fill="none" stroke-width=".09375" stroke-linecap="square" stroke-linejoin="round" stroke="#212121"/></svg>
